svgs/light/ticket-simple.svg

<svg xmlns="http://www.w3.org/2000/svg" viewBox="0 0 576 512"><!--! Font Awesome Pro 6.5.1 by @fontawesome - https://fontawesome.com License - https://fontawesome.com/license (Commercial License) Copyright 2023 Fonticons, Inc. --><path d="M0 128C0 92.7 28.7 64 64 64H512c35.3 0 64 28.7 64 64v66c0 7.3-4.9 13.7-12 15.5c-20.7 5.3-36 24.1-36 46.5s15.3 41.2 36 46.5c7.1 1.8 12 8.2 12 15.5v66c0 35.3-28.7 64-64 64H64c-35.3 0-64-28.7-64-64V318c0-7.3 4.9-13.7 12-15.5c20.7-5.3 36-24.1 36-46.5s-15.3-41.2-36-46.5C4.9 207.7 0 201.3 0 194V128zM64 96c-17.7 0-32 14.3-32 32v54.7C60.2 195 80 223.2 80 256s-19.8 61-48 73.3V384c0 17.7 14.3 32 32 32H512c17.7 0 32-14.3 32-32V329.3c-28.2-12.3-48-40.5-48-73.3s19.8-61 48-73.3V128c0-17.7-14.3-32-32-32H64z"/></svg>

<svg xmlns="http://www.w3.org/2000/svg" viewBox="0 0 576 512"><!--! Font Awesome Pro 6.1.1 by @fontawesome - https://fontawesome.com License - https://fontawesome.com/license (Commercial License) Copyright 2022 Fonticons, Inc. --><path d="M576 208C549.5 208 528 229.5 528 256C528 282.5 549.5 304 576 304V384C576 419.3 547.3 448 512 448H64C28.65 448 0 419.3 0 384V304C26.51 304 48 282.5 48 256C48 229.5 26.51 208 0 208V128C0 92.65 28.65 64 64 64H512C547.3 64 576 92.65 576 128V208zM64 96C46.33 96 32 110.3 32 128V182.7C60.25 195 80 223.2 80 256C80 288.8 60.25 316.1 32 329.3V384C32 401.7 46.33 416 64 416H512C529.7 416 544 401.7 544 384V329.3C515.7 316.1 496 288.8 496 256C496 223.2 515.7 195 544 182.7V128C544 110.3 529.7 96 512 96H64z"/></svg>
